X:1
T:Croppies Lie Down
M:6/8
L:1/8
K:G
 g| dBG GFG| A3/2 B/2 A A2 d| ege dBd| gGG G2 g| dBG GFG| A3/2 B/2 A A2 d|\
 ege dBd| gGG G2 d| def gfg| efg a2 f| gab efg| dBG A3| G3 d3| dBd G2||\
